X:1
T: Fast Packet
N:
C:Tune is "Jacob, or Enrico"
S:
A:
O:
R:
M:4/4
K:D
I:speed 200
%W: A1
% voice 1 (1 lines, 50 notes)
K:D
M:4/4
L:1/16
A4 |d4 f2 e2 d2 c2 d2 B2 |A2 B2 A2 G2 F4 A4 |d4 e2 f2 g2 f2 g2 f2 |e4 a4 a4 f2 e2 |d4 f2 e2 d2 c2 d2 B2 |A2 B2 A2 G2 F4 A4 |B4 g2 f2 e2 d2 e2 c2 |d4 d4 d4 A4 |
%W: A2
% voice 1 (1 lines, 49 notes)
d4 f2 e2 d2 c2 d2 B2 |A2 B2 A2 G2 F4 A4 |d4 e2 f2 g2 f2 g2 f2 |e4 a4 a4 f2 e2 |d4 f2 e2 d2 c2 d2 B2 |A2 B2 A2 G2 F4 A4 |B4 g2 f2 e2 d2 e2 c2 |d4 d4 d4 z4 |
%W: B1
% voice 1 (1 lines, 51 notes)
a4 a2 g2 f2 g2 f2 e2 |d2 e2 d2 c2 B4 B4 |g2 a2 g2 f2 e2 f2 e2 d2 |c2 d2 c2 B2 A4 A4/3 |B4/3 c4/3 d4 d4 |c2 e2 c2 A2 d4 d4 |c2 e2 c2 A2 d4 f4 |e2 d2 e2 c2 d4 d4 |d4 z4
%W: B2
% voice 1 (1 lines, 50 notes)
a4 a2 g2 |f2 g2 f2 e2 d2 e2 d2 c2 |B4 B4 g2 a2 g2 f2 |e2 f2 e2 d2 c2 d2 c2 B2 |A4 A4/3 B4/3 c4/3 |d4 d4 c2 e2 c2 A2 |d4 d4 c2 e2 c2 A2 |d4 f4 e2 d2 e2 c2 |d4 d4 d4 ||
